static/assets/images/networks/fuse-mono.svg

<svg width="248" height="256" viewBox="0 0 248 256" fill="none" xmlns="http://www.w3.org/2000/svg">
<path fill-rule="evenodd" clip-rule="evenodd" d="M123.433 209.649C114.718 209.649 106.618 207.823 100.008 204.367L28.8217 167.164L7.49075 179.978C-2.64851 186.066 -2.47141 195.4 7.88583 200.813L106.343 252.273C111.124 254.77 117.238 256 123.433 256C130.667 256 138.007 254.326 143.47 251.047L239.856 193.147C249.995 187.055 249.818 177.721 239.461 172.311L218.992 161.608L150.51 202.748C143.099 207.196 133.484 209.649 123.433 209.649Z" fill="black"/>
<path fill-rule="evenodd" clip-rule="evenodd" d="M240.094 110.704L223.003 101.639L150.908 145.581C143.477 150.113 133.834 152.605 123.76 152.605C115.021 152.605 106.901 150.747 100.273 147.235L25.4635 107.56L7.51159 118.504C-2.65444 124.701 -2.48028 134.193 7.90429 139.701L106.624 192.053C111.415 194.593 117.548 195.841 123.76 195.841C131.01 195.841 138.372 194.141 143.846 190.805L240.49 131.901C250.656 125.707 250.479 116.211 240.094 110.704Z" fill="black"/>
<path fill-rule="evenodd" clip-rule="evenodd" d="M240.094 55.1637L141.374 3.72545C136.583 1.22601 130.453 0 124.238 0C116.988 0 109.626 1.67306 104.152 4.95146L7.51159 62.8314C-2.65444 68.9174 -2.48028 78.2446 7.90429 83.6566L106.624 135.102C111.415 137.598 117.548 138.824 123.76 138.824C131.01 138.824 138.372 137.151 143.846 133.872L240.49 75.9924C250.656 69.9064 250.479 60.5758 240.094 55.1637Z" fill="black"/>
</svg>

<svg xmlns="http://www.w3.org/2000/svg" fill="none" viewBox="0 0 248 256"><path fill="#000" fill-rule="evenodd" d="M123.383 209.649c-8.712 0-16.808-1.826-23.416-5.282L28.81 167.164 7.488 179.978c-10.135 6.088-9.958 15.422.395 20.835l98.417 51.46c4.779 2.497 10.891 3.727 17.083 3.727 7.231 0 14.568-1.674 20.029-4.953l96.347-57.9c10.135-6.092 9.958-15.426-.395-20.836l-20.461-10.703-68.454 41.14c-7.408 4.448-17.019 6.901-27.066 6.901" clip-rule="evenodd"/><path fill="#000" fill-rule="evenodd" d="m239.997 110.704-17.085-9.065-72.065 43.942c-7.428 4.532-17.067 7.024-27.137 7.024-8.735 0-16.852-1.858-23.478-5.37L25.453 107.56 7.51 118.504c-10.162 6.197-9.988 15.689.392 21.197l98.68 52.352c4.789 2.54 10.92 3.788 17.129 3.788 7.247 0 14.606-1.7 20.078-5.036l96.605-58.904c10.162-6.194 9.984-15.69-.396-21.197" clip-rule="evenodd"/><path fill="#000" fill-rule="evenodd" d="m239.997 55.164-98.68-51.439C136.528 1.226 130.4 0 124.188 0c-7.247 0-14.606 1.673-20.078 4.951L7.509 62.831C-2.653 68.917-2.48 78.245 7.9 83.657l98.68 51.445c4.789 2.496 10.92 3.722 17.129 3.722 7.247 0 14.606-1.673 20.078-4.952l96.605-57.88c10.162-6.086 9.984-15.416-.396-20.828" clip-rule="evenodd"/></svg>
